flaticon/outdoor/flashlight.svg

<svg xmlns="http://www.w3.org/2000/svg" width="32" height="32" viewBox="0 0 24 24">
    <path d="M 24 2.742188 C 24 2.089844 23.746094 1.476562 23.285156 1.015625 C 22.824219 0.554688 22.210938 0.300781 21.558594 0.300781 C 21.042969 0.300781 20.550781 0.460938 20.140625 0.757812 C 19.78125 0.445312 19.242188 0.457031 18.898438 0.796875 L 18.464844 1.230469 C 18.132812 1.5625 18.117188 2.085938 18.402344 2.445312 L 10.054688 10.792969 L 9.820312 10.558594 C 9.472656 10.210938 8.910156 10.210938 8.5625 10.558594 L 7.753906 11.371094 L 7.515625 11.132812 C 7.183594 10.796875 6.597656 10.796875 6.261719 11.132812 L 5.214844 12.179688 C 5.050781 12.347656 4.957031 12.570312 4.957031 12.808594 C 4.957031 13.027344 5.039062 13.230469 5.183594 13.394531 C 3.871094 14.992188 3.960938 17.359375 5.453125 18.847656 C 6.246094 19.640625 7.285156 20.039062 8.328125 20.039062 C 9.242188 20.039062 10.160156 19.730469 10.90625 19.117188 C 11.074219 19.265625 11.28125 19.34375 11.492188 19.34375 C 11.71875 19.34375 11.945312 19.257812 12.121094 19.082031 L 13.164062 18.035156 C 13.511719 17.691406 13.511719 17.128906 13.164062 16.78125 L 12.929688 16.546875 L 13.742188 15.734375 C 14.085938 15.390625 14.085938 14.828125 13.742188 14.480469 L 13.507812 14.246094 L 21.855469 5.898438 C 22.019531 6.03125 22.21875 6.101562 22.421875 6.101562 C 22.65625 6.101562 22.890625 6.011719 23.070312 5.832031 L 23.503906 5.398438 C 23.84375 5.058594 23.855469 4.515625 23.542969 4.15625 C 23.839844 3.746094 24 3.257812 24 2.742188 Z M 6.027344 18.273438 C 4.855469 17.101562 4.765625 15.25 5.757812 13.976562 L 10.324219 18.542969 C 9.046875 19.535156 7.199219 19.445312 6.027344 18.273438 Z M 12.589844 17.460938 L 11.542969 18.507812 C 11.515625 18.535156 11.46875 18.535156 11.441406 18.507812 L 5.792969 12.859375 C 5.773438 12.839844 5.769531 12.820312 5.769531 12.808594 C 5.769531 12.792969 5.773438 12.773438 5.792969 12.753906 L 6.835938 11.710938 C 6.875 11.671875 6.90625 11.671875 6.941406 11.710938 L 12.589844 17.359375 C 12.617188 17.386719 12.617188 17.433594 12.589844 17.460938 Z M 22.710938 1.589844 C 23.015625 1.898438 23.1875 2.304688 23.1875 2.742188 C 23.1875 3.035156 23.101562 3.316406 22.957031 3.5625 L 20.742188 1.347656 C 21.359375 0.996094 22.195312 1.074219 22.710938 1.589844 Z M 21.273438 5.328125 L 19.546875 7.054688 L 17.246094 4.753906 L 18.96875 3.027344 Z M 16.101562 5.894531 L 16.667969 5.328125 L 18.96875 7.628906 L 18.109375 8.492188 L 15.808594 6.191406 Z M 13.164062 15.054688 C 13.195312 15.085938 13.195312 15.132812 13.164062 15.160156 L 12.355469 15.972656 L 8.328125 11.945312 L 9.140625 11.132812 C 9.167969 11.105469 9.214844 11.105469 9.242188 11.132812 L 9.480469 11.367188 L 12.929688 14.820312 Z M 10.628906 11.371094 L 15.230469 6.765625 L 17.53125 9.066406 L 12.929688 13.671875 Z M 22.925781 4.824219 L 22.492188 5.257812 C 22.453125 5.296875 22.390625 5.296875 22.351562 5.257812 L 19.039062 1.949219 C 19.003906 1.910156 19.003906 1.84375 19.039062 1.808594 L 19.472656 1.375 C 19.492188 1.355469 19.519531 1.34375 19.546875 1.34375 C 19.570312 1.34375 19.597656 1.351562 19.617188 1.371094 L 22.925781 4.683594 C 22.964844 4.722656 22.964844 4.785156 22.925781 4.824219 Z M 14.367188 9.355469 L 15.519531 8.203125 L 16.09375 8.78125 L 14.941406 9.929688 Z M 12.644531 12.230469 L 12.066406 11.65625 L 13.21875 10.507812 L 13.792969 11.082031 Z M 14.082031 9.8125 C 14.304688 9.8125 14.488281 9.996094 14.488281 10.21875 C 14.488281 10.441406 14.304688 10.625 14.082031 10.625 C 13.855469 10.625 13.675781 10.441406 13.675781 10.21875 C 13.675781 9.996094 13.855469 9.8125 14.082031 9.8125 Z M 4.1875 18.9375 L 1.542969 21.582031 C 1.382812 21.742188 1.382812 22 1.542969 22.15625 C 1.621094 22.238281 1.726562 22.277344 1.832031 22.277344 C 1.933594 22.277344 2.039062 22.238281 2.117188 22.15625 L 4.761719 19.511719 C 4.921875 19.355469 4.921875 19.097656 4.761719 18.9375 C 4.601562 18.777344 4.347656 18.78125 4.1875 18.9375 Z M 5.695312 19.632812 C 5.46875 19.632812 5.289062 19.816406 5.289062 20.039062 L 5.289062 23.292969 C 5.289062 23.519531 5.46875 23.699219 5.695312 23.699219 C 5.917969 23.699219 6.101562 23.519531 6.101562 23.292969 L 6.101562 20.039062 C 6.101562 19.816406 5.917969 19.632812 5.695312 19.632812 Z M 4.066406 17.597656 C 4.066406 17.375 3.886719 17.191406 3.660156 17.191406 L 0.40625 17.191406 C 0.183594 17.191406 0 17.375 0 17.597656 C 0 17.824219 0.183594 18.003906 0.40625 18.003906 L 3.660156 18.003906 C 3.886719 18.003906 4.066406 17.824219 4.066406 17.597656 Z M 4.066406 17.597656"/>
</svg>

<svg xmlns="http://www.w3.org/2000/svg" width="32" height="32" viewBox="0 0 24 24">
    <path d="M24 2.742c0-.652-.254-1.265-.715-1.726A2.426 2.426 0 0 0 21.56.3c-.516 0-1.008.16-1.418.457a.911.911 0 0 0-1.243.039l-.433.433a.914.914 0 0 0-.063 1.215l-8.347 8.348-.235-.234a.889.889 0 0 0-1.258 0l-.808.812-.238-.238a.906.906 0 0 0-1.254 0L5.215 12.18a.88.88 0 0 0-.031 1.215 4.066 4.066 0 0 0 5.722 5.722.883.883 0 0 0 1.215-.035l1.043-1.047a.884.884 0 0 0 0-1.254l-.234-.234.812-.813a.891.891 0 0 0 0-1.254l-.234-.234 8.347-8.348a.9.9 0 0 0 .567.204c.234 0 .469-.09.648-.27l.434-.434a.911.911 0 0 0 .039-1.242c.297-.41.457-.898.457-1.414zM6.027 18.273a3.258 3.258 0 0 1-.27-4.296l4.567 4.566a3.258 3.258 0 0 1-4.297-.27zm6.563-.812l-1.047 1.047a.073.073 0 0 1-.102 0l-5.648-5.649a.072.072 0 0 1-.023-.05c0-.016.003-.036.023-.055l1.043-1.043c.039-.04.07-.04.105 0l5.649 5.648a.073.073 0 0 1 0 .102zM22.71 1.59c.306.308.477.715.477 1.152 0 .293-.085.574-.23.82l-2.215-2.214c.617-.352 1.453-.274 1.969.242zm-1.437 3.738l-1.726 1.727-2.3-2.301 1.722-1.727zm-5.171.567l.566-.567 2.3 2.3-.859.864-2.3-2.3zm-2.938 9.16c.031.03.031.078 0 .105l-.809.813-4.027-4.028.813-.812a.073.073 0 0 1 .101 0l.238.234 3.45 3.453zM10.63 11.37l4.601-4.605 2.301 2.3-4.601 4.606zm12.297-6.547l-.434.434a.099.099 0 0 1-.14 0l-3.313-3.309c-.035-.039-.035-.105 0-.14l.434-.434a.107.107 0 0 1 .074-.031.1.1 0 0 1 .07.027l3.309 3.313c.039.039.039.101 0 .14zm-8.559 4.531l1.153-1.152.574.578L14.94 9.93zm-1.722 2.875l-.579-.574 1.153-1.148.574.574zm1.437-2.418c.223 0 .406.184.406.407a.406.406 0 1 1-.406-.406zm-9.895 9.126l-2.644 2.644a.403.403 0 0 0 0 .574.396.396 0 0 0 .289.121c.102 0 .207-.039.285-.12l2.645-2.645a.407.407 0 0 0-.574-.574zm1.508.695a.406.406 0 0 0-.406.406v3.254a.406.406 0 1 0 .813 0v-3.254a.408.408 0 0 0-.407-.406zm-1.629-2.035a.406.406 0 0 0-.406-.407H.406a.406.406 0 1 0 0 .813H3.66c.227 0 .406-.18.406-.406zm0 0"/>
</svg>
